!!!OTL: Exultet
!!!SMS: London, British Library, Add. 30337
**kern	**silbe
*	*LLatin
*staff1	*staff1
!Lo	!Lo
=1-	=1-
*clefGv2	*
*k[]	*
4F	E-
(8G	XUL
8A)	.
8G	-TET
8G	IAM
4F	AN-
=2-	=2-
(8F	GE
8G)	.
8G	LI
8G	-CA
(8G	TUR-
8A)	.
(8A	-BA
8G)	.
=3-	=3-
4F	CAE-
(8G	LO
8A	.
4G)	.
4F	-RUM
=4-	=4-
4F	E-
4A	XUL
4G	-TENT
4G	DI-
=5-	=5-
(4G	VI
4A)	.
(4A	-NA
4G)	.
=6-	=6-
4F	MI-
(8G	STE
8A)	.
(8G	RI
8F)	.
4F	-A
=7-	=7-
8F	ET
8G	PRO
8A	TAN-
8G	-TI
(16F	RE-
16G)	.
8G	-GIS
8F	VIC-
(16F	TO
16G)	.
=8-	=8-
8G	RI
8G	-A
8G	TU-
8F	-BA
8G	IN-
8F	TO
(16G	-NET
16A)	.
(16G	.
16A)	.
=9-	=9-
16G	.
16F	.
(16G	SA-
16A)	.
(16G	LU
16A	.
8G)	.
4F	TA
4F	-RIS
=10-	=10-
(8G	Gau-
8A)	.
8G	-de-
8G	-at
8G	se
8G	tan-
8F	-tis
(16F	tel-
16G)	.
=11-	=11-
8G	-lus
8G	ir-
8G	-ra-
8G	-di-
(8G	-a-
8A)	.
(8A	-tam
8G)	.
=12-	=12-
4F	ful-
(8G	-go-
8A)	.
(8G	-ri-
8F)	.
4F	-bus.
=13-	=13-
8F	et
8G	e-
8A	-ter-
8G	-ni
(8F	re-
8G)	.
8G	-gis
8G	splen-
=14-	=14-
(8G	-do-
8A)	.
(4A	-re
4G)	.
4F	lu-
=15-	=15-
(4G	-stra-
4A	.
4G)	.
4F	-ta
=16-	=16-
8F	to-
8A	-ti-
8G	-us
8G	or-
8G	-bis
8F	se
(8F	sen-
8G)	.
=17-	=17-
8G	-ti-
8G	-at
8G	a-
8F	-mi-
(8G	-sis-
8A)	.
(8G	.
8A)	.
=18-	=18-
8G	.
8F	.
(8G	-se
8A)	.
(8G	ca-
16A	.
16G)	.
16F	-li-
16F	-gi-
8F	-nem.
=19-	=19-
(16G	Le-
16A)	.
8G	-te-
8G	-tur
8G	et
8G	ma-
8G	-ter
8F	ec-
(16F	-cle-
16G)	.
=20-	=20-
16G	-si-
16G	-a
16G	tan-
16F	-ti
(16F	lu-
16G)	.
16G	-mi-
16G	-nis
16G	a-
16G	-dor-
(16G	-na-
16A)	.
(8A	-ta
8G)	.
=21-	=21-
4F	ful-
(8G	-go-
8A)	.
(8G	-ri-
8F)	.
4F	-bus.
=22-	=22-
8F	et
8A	mag-
8G	-nis
8G	po-
8G	-pu-
8G	-lo-
8F	-rum
(16F	vo-
16G)	.
=23-	=23-
8G	-ci-
8G	-bus
8F	hec
(8G	au-
8A)	.
(8G	.
8A)	.
8G	.
=24-	=24-
8F	.
(8G	-la
8A)	.
(8G	re-
8A	.
8G)	.
8F	-sul-
8F	-tet.
=25-	=25-
(8G	Qua-
8A)	.
8G	prop
8G	-ter
4G	vos
4F	a-
=26-	=26-
(8F	-stan-
8G)	.
4G	-tes
(8G	fra-
8A)	.
(8A	-tres
8G)	.
=27-	=27-
4F	ca-
(8G	-ris-
8A)	.
(8G	-si-
8F)	.
4F	-mi.
=28-	=28-
4F	ad
4A	tam
4G	mi-
4G	-ram
=29-	=29-
8G	sanc-
8F	-ti
(8F	hu-
8G)	.
8G	-ius
8G	lu-
8G	-mi-
(16G	-nis
16A)	.
=30-	=30-
(8A	cla-
8G)	.
8F	-ri-
(8G	-ta-
8A	.
8G)	.
4F	-tem.
=31-	=31-
8F	u-
8A	-na
8G	me-
8F	-cum
(8F	que-
8G)	.
8G	-so
8G	de-
=32-	=32-
16G	-i
16G	om-
16G	-ni-
16F	-po-
(16F	-ten-
16G)	.
16G	-tis
16G	mi-
16G	-se-
16F	-ri-
16G	-cor-
16F	-di-
(16G	-am
16A)	.
(16G	.
16A)	.
=33-	=33-
16G	.
16F	.
(8G	in-
8A)	.
(8G	-vo-
8A	.
8G)	.
8F	-ca-
8F	-te.
=34-	=34-
(16G	Ut
16A)	.
16G	qui
16G	me
16G	non
16G	me-
16F	-is
(16F	me-
16G)	.
16G	-ri-
16G	-tis
16G	in-
16G	-tra
16G	le-
16G	-vi-
16G	-ta-
=35-	=35-
16F	-rum
(16F	nu-
16G)	.
16G	-me-
8G	-rum
8G	dig-
8G	-na-
8G	-tus
(8G	est
8A)	.
=36-	=36-
(8A	ag-
8G)	.
8F	-gre-
(8G	-ga-
8A	.
8G)	.
4F	-re.
=37-	=37-
4A	lu-
4G	-mi-
4F	-nis
(8F	su-
8G)	.
=38-	=38-
8G	-i
8G	gra-
4G	-ti-
(4G	-am
4A)	.
=39-	=39-
(8A	in-
8G)	.
8F	-fun-
(8G	-den-
8A	.
8G)	.
4F	-do.
=40-	=40-
4A	ce-
8G	-re-
8F	-i
(8F	hu-
8G)	.
8G	-ius
8G	lau-
=41-	=41-
8G	-dem
8F	im-
(8G	-ple-
8A)	.
(8G	.
8A)	.
8G	.
8F	.
=42-	=42-
(8G	-re
8A)	.
(8G	pre-
16A	.
16G)	.
8F	-ci-
8F	-pi-
4F	-at.
=43-	=43-
(8G	Per
8A)	.
8G	do-
8G	-mi-
8G	-num
8G	no-
8G	-strum
8G	ie-
=44-	=44-
4F	-sum
(8F	chri-
8G)	.
4G	-stum
(8G	fi-
8A)	.
=45-	=45-
(8A	-li-
8G)	.
8F	-um
(8G	su-
8A	.
8G)	.
4F	-um.
=46-	=46-
8F	vi-
8A	-ven-
8G	-tem
8G	se-
8G	-cum
8G	at-
8G	-que
8F	reg-
=47-	=47-
(8F	-nan-
8G)	.
8G	-tem
8G	in
16G	u-
16F	-ni-
(16F	-ta-
16G)	.
16G	-te
16G	spi-
16G	-ri-
(16G	-tus
=48-	=48-
16A)	.
(16A	sanc-
16G)	.
16F	-ti
(8G	de-
8A	.
4G)	.
4F	-um.
=49-	=49-
8F	Per
8A	om-
8G	-ni-
8F	-a
8G	se-
8F	-cu-
(8G	-la
8A)	.
=50-	=50-
(8G	.
8A)	.
8G	.
8F	.
(8G	se-
8A)	.
(8G	-cu-
8A	.
=51-	=51-
8G)	.
8F	-lo-
4F	-rum.
4E	A-
4F	-men.
=52-	=52-
8F	Do-
(8G	-mi-
8A)	.
(8B	-nus
8A)	.
(8G	vo-
8A)	.
8G	.
=53-	=53-
16F	.
(16G	-bi-
16A	.
16G)	.
16F	-scum.
16F	Et
(16G	cum
16A)	.
(8B	spi-
8A)	.
(8B	-ri-
8G)	.
=54-	=54-
(8G	-tu
8A	.
8B	.
8A)	.
(8G	tu-
8A)	.
(8G	-o.
8F)	.
=55-	=55-
(16F	Sur-
16G	.
16A	.
16B)	.
(16B	-sum
16A)	.
(16G	.
16A)	.
16G	.
16F	.
(16G	cor-
16A)	.
(8G	-da.
8F)	.
=56-	=56-
8F	Ha-
(16G	-be-
16A)	.
(16B	-mus
16A)	.
(16B	ad
16G)	.
(8G	do-
8A	.
8B	.
8A)	.
=57-	=57-
(4G	-mi-
4A)	.
(4G	-num.
4F)	.
=58-	=58-
(16F	Gra-
16G	.
16A)	.
(16G	-ti-
16F)	.
16G	-as
(16A	a-
16G)	.
(16A	-ga-
16B)	.
(16B	-mus
16A)	.
(16G	do-
16A	.
16B)	.
16A	-mi-
=59-	=59-
(16G	-no
16F)	.
(16F	de-
16G)	.
16A	-o
(16G	no-
16A)	.
16G	-stro.
(8F	Dig-
16G	.
16A)	.
(16B	-num
16A)	.
(16B	et
16G)	.
=60-	=60-
(16G	iu-
16A	.
16B	.
16A)	.
(8G	-stum
8A)	.
(4G	est.
4F)	.
=61-	=61-
(16F	VE-
16A)	.
(16G	-RE
16A)	.
16G	.
16F	.
16F	QUI-
16G	-A
8A	DIG-
(16A	-NUM
16G)	.
8G	ET
(16F	IU-
16G)	.
=62-	=62-
16G	-STUM
16G	EST
(16F	AE-
16G)	.
16F	-QUUM
(16G	ET
16A)	.
(16G	.
16A)	.
16G	.
16F	.
(16G	SA-
8A)	.
(8G	LU
=63-	=63-
4A	.
4G)	.
4F	TA
4F	-RE
=64-	=64-
(8G	Te
8A)	.
8G	in-
8G	-vi-
8G	-si-
8G	-bi-
8F	-lem
(16F	de-
16G)	.
=65-	=65-
8G	-um
8G	pa-
8G	-trem
(8G	om-
8A)	.
(8A	-ni-
4G)	.
=66-	=66-
4F	-po-
(4G	-ten-
8A	.
8G)	.
4F	-tem.
=67-	=67-
8F	fi-
8F	-li-
8A	-um-
8G	-que
8G	tu-
8G	-um
8G	u-
8F	-ni-
=68-	=68-
(8F	-ge-
8G)	.
8G	-ni-
8G	-tum
8G	do-
8G	-mi-
8G	-num
8G	no-
=69-	=69-
(16G	-strum
16A)	.
(16A	ie-
16G)	.
4F	-sum
(8G	chri-
16A	.
16G)	.
4F	-stum.
=70-	=70-
16A	to-
16G	-to
(16F	cor-
16G)	.
16G	-dis
16G	ac
(16G	men-
16A)	.
(16A	-tis
16G)	.
8F	af-
(16G	-fec-
16A	.
16G)	.
16F	-tu.
=71-	=71-
8F	et
8A	vo-
8G	-cis
8G	mi-
8F	-ni-
8G	-ste-
8F	-ri-
(16G	-o
16A)	.
=72-	=72-
(16G	.
16A)	.
16G	.
16F	.
(16G	per-
16A)	.
(8G	-so-
16A	.
16G)	.
8F	-na-
4F	-re.
=73-	=73-
(16G	Qui
16A)	.
8G	pro
8G	no-
8G	-bis
8G	ti-
8G	-bi
8G	e-
8G	-ter-
=74-	=74-
8F	-no
(16F	pa-
16G)	.
8G	-tri
8G	a-
8G	-de
(16G	de-
16A)	.
(16A	-bi-
16G)	.
8F	-tum
=75-	=75-
(4G	sol-
4A	.
4G)	.
4F	-vit.
=76-	=76-
8F	et
8A	ve-
8G	-te-
8G	-ris
(16F	pia-
16G)	.
8G	-cu-
(16G	-li
16A)	.
(16A	cau-
16G)	.
=77-	=77-
8F	-ti-
(16G	-o-
16A	.
16G)	.
16F	-nem
8G	pi-
8G	-o
8F	cru-
(16G	-o-
16A)	.
(16G	.
16A)	.
=78-	=78-
16G	.
16F	.
(16G	-re
16A)	.
(8G	de-
16A	.
16G)	.
4F	-ter-
4F	-sit.
=79-	=79-
(8G	Hec
8A)	.
4G	sunt
(8F	e-
8G)	.
4G	-nim
=80-	=80-
(4G	fe-
4A)	.
(4A	-sta
4G)	.
=81-	=81-
4F	pa-
(8G	-scha-
8A)	.
(8G	-li-
8F)	.
4F	-a
=82-	=82-
4F	in
4F	qui-
4G	-bus
4A	ve-
=83-	=83-
4G	-rus
4G	il-
4G	-le
(8G	ag-
8A)	.
=84-	=84-
(8A	-nus
8G)	.
8F	oc-
(8G	-ci-
8A)	.
(8G	-di-
8F)	.
8F	-tur.
=85-	=85-
4F	e-
4A	-ius-
4G	-que
(8F	san-
8G)	.
=86-	=86-
8G	gui
8G	-ne
4F	po-
(8G	-stes
8A)	.
(8G	.
8A)	.
=87-	=87-
8G	.
8F	.
(8G	con-
8A)	.
(8G	-se-
16A	.
16G)	.
8F	-cran-
8F	-tur.
=88-	=88-
(16G	Hec
16A)	.
8G	nox
(16F	est
16G)	.
8G	in
8G	qua
8G	pri-
8G	-mum
8G	pa-
=89-	=89-
8F	-tres
(16F	no-
16G)	.
8G	-stros
8G	fi-
16G	-li-
16G	-os
16G	is-
16F	-ra-
8G	-hel
8G	e-
=90-	=90-
8G	-duc-
(16G	-tos
16A)	.
(16A	ex
16G)	.
8F	e-
(8G	-gyp-
8A	.
8G)	.
8F	-to.
=91-	=91-
8A	ru-
8G	-brum
(16F	ma-
16G)	.
8G	-re
8G	sic-
8G	-co
8F	ve-
(16F	-sti-
16G)	.
=92-	=92-
8G	-gi-
8G	-o
8F	tran-
(16G	-si-
16A)	.
(16G	.
16A)	.
16G	.
16F	.
(8G	-re
8A)	.
=93-	=93-
(4G	fe-
8A	.
8G)	.
4F	-ci-
4F	-sti.
=94-	=94-
(8G	Hec
8A)	.
4G	i-
4G	-gi-
4F	-tur
=95-	=95-
(8F	nox
8G)	.
8G	est
8G	que
4G	pec-
(8G	-ca-
8A)	.
=96-	=96-
(8A	-to-
8G)	.
8F	-rum
(8G	te-
8A)	.
(8G	-ne-
8F)	.
8F	-bras
=97-	=97-
4F	co-
4A	-lum-
4G	-ne
8G	il-
8G	-lu-
=98-	=98-
8G	-mi-
8G	-na-
8F	-ti-
(16G	-o-
16A)	.
(16G	.
16A)	.
16G	.
16F	.
(8G	-ne
8A)	.
=99-	=99-
(4G	pur-
8A	.
8G)	.
4F	-ga-
4F	-vit.
=100-	=100-
(8G	Hec
8A)	.
4G	nox
(8F	est
8G)	.
4G	que
=101-	=101-
8G	ho-
8G	-di-
8G	-e
8G	per
16G	u-
16G	-ni-
16G	-ver-
16F	-sum
(16F	mun-
&(16G&))	.
16G	-dum
16G	in
=102-	=102-
(16G	chri-
16A)	.
(16A	-sto
16G)	.
4F	cre-
(8G	-den-
16A	.
16G)	.
4F	-tes
=103-	=103-
8F	a
8A	vi-
8G	-ti-
8G	-is
8G	se-
8G	-cu-
8G	-li
8G	se-
=104-	=104-
8F	-gre-
(16F	-ga-
16G)	.
8G	-tos
8G	et
8G	ca-
8G	-li-
8G	-gi-
(16G	-ne
16A)	.
=105-	=105-
(8A	pec-
8G)	.
8F	-ca-
(8G	-to-
8A	.
8G)	.
4F	-rum.
=106-	=106-
4A	red-
(16G	-dit
16A)	.
(16G	.
16F)	.
(8G	gra-
8A)	.
(8G	-ti-
8F)	.
=107-	=107-
8F	-e.
8G	so-
4F	-ci-
(8G	-at
8A)	.
(8G	.
8A)	.
=108-	=108-
8G	.
8F	.
(8G	sanc-
8A)	.
(8G	-ti-
16A	.
16G)	.
8F	-ta-
8F	-ti.
=109-	=109-
(8G	Hec
8A)	.
8G	nox
(8F	est
8G)	.
8G	in
8G	qua
8F	de-
=110-	=110-
(8F	-struc-
8G)	.
8G	-tis
(8G	vin-
8A)	.
(8A	-cu-
8G)	.
8F	-lis
=111-	=111-
(4G	mor-
4A	.
4G)	.
4F	-tis.
=112-	=112-
4A	chri-
8G	-stus
8F	ab
(8F	in-
8G)	.
8G	-fe-
8F	-ris
=113-	=113-
(8G	vic-
8A)	.
(8G	.
8A)	.
8G	.
8F	.
(8G	-tor
8A)	.
=114-	=114-
(8G	a-
8A	.
4G)	.
4F	-scen-
4F	-dit.
=115-	=115-
(4G	Ni-
4A)	.
4G	-chil
(8F	e-
8G)	.
=116-	=116-
4G	-nim
4G	no-
(8G	-bis
8A)	.
(8A	na-
8G)	.
=117-	=117-
4F	-sci
(8G	pro-
8A)	.
(8G	-fu-
8F)	.
4F	-it.
=118-	=118-
4F	ni-
4F	-si
4G	re-
4F	-di-
=119-	=119-
(8G	-mi
8A)	.
(8G	.
8A)	.
(8G	.
8F)	.
(8G	pro-
8A)	.
=120-	=120-
(4G	-fu-
8A	.
8G)	.
4F	-is-
4F	-set.
=121-	=121-
(16G	O
16A)	.
8G	mi-
8G	-ra
8G	cir-
8F	-ca
(16F	nos
16G)	.
8G	tu-
8G	-e
=122-	=122-
8G	pi-
8G	-e-
(8G	-ta-
8A)	.
(8A	-tis
8G)	.
4F	di-
=123-	=123-
(4G	-gna-
8A)	.
(4G	-ti-
8F)	.
4F	-o.
=124-	=124-
8A	o
8G	i-
8G	-ne-
8F	-sti-
(8F	-ma-
8G)	.
8G	-bi-
8G	-lis
=125-	=125-
8G	di-
8G	-lec-
4G	-ti-
(16G	-o
16A)	.
(4A	ca-
8G)	.
=126-	=126-
4F	-ri-
(4G	-ta-
8A	.
8G)	.
4F	-tis.
=127-	=127-
8F	ut
8A	ser-
8G	-vum
8F	re-
(8F	-di-
8G)	.
8G	-me-
8G	-res.
=128-	=128-
8G	fi-
8F	-li-
(8G	-um
8A)	.
(8G	.
8A)	.
8G	.
8F	.
=129-	=129-
(8G	tra-
8A)	.
(8G	-di-
16A	.
16G)	.
4F	-di-
4F	-sti.
=130-	=130-
(8G	O
8A)	.
4G	cer-
4G	-te
4G	ne-
=131-	=131-
4F	-ces-
(8F	-sa-
&(8G&))	.
8G	-ri-
8G	-um
(8G	a-
8A)	.
=132-	=132-
(8A	-de
8G)	.
8F	pec-
(8G	-ca-
8A	.
8G)	.
4F	-tum
=133-	=133-
8F	quod
8G	chri-
8F	-sti
(8G	mor-
8A)	.
(8G	.
8A)	.
8G	.
=134-	=134-
8F	.
(8G	-te
8A)	.
(8G	de-
8A	.
8G)	.
8F	-le-
16F	-tum
16F	est.
=135-	=135-
(8G	O
16A)	.
(8A	fe-
16G)	.
8F	-lix
(8G	cul-
8A	.
8G)	.
8F	-pa
=136-	=136-
8F	que
8A	ta-
8G	-lem
8F	ac
(16F	tan-
16G)	.
8G	-tum
8G	me-
8G	-ru-
=137-	=137-
8F	-it
8G	ha-
4F	-be-
(8G	-re
8A)	.
(8G	.
8A)	.
=138-	=138-
16G	.
16F	.
(16G	re-
16A)	.
(8G	-demp-
16A	.
16G)	.
4F	-to-
4F	-rem
=139-	=139-
(16G	O
16A)	.
8G	be-
8G	-a-
8F	-ta
(16F	nox
16G)	.
8G	que
8G	so-
8G	-la
=140-	=140-
8G	me-
8G	-ru-
8F	-it
(16F	sci-
16G)	.
4G	-re
(8G	tem-
8A)	.
=141-	=141-
(8A	-pus
8G)	.
4F	et
(8G	ho-
16A	.
16G)	.
4F	-ram
=142-	=142-
8F	in
8A	qua
8G	chri-
8G	-stus
8F	ab
8G	in-
4F	-fe-
=143-	=143-
(8G	-ris
8A)	.
(8G	.
8A)	.
8G	.
8F	.
(8G	re-
&(8A&))	.
=144-	=144-
(4G	-sur-
8A	.
8G)	.
4F	-re-
4F	-xit.
=145-	=145-
(16G	Hec
16A)	.
8G	nox
(8G	est
16A)	.
(8A	de
16G)	.
8F	qua
(8G	scrip-
8A)	.
=146-	=146-
(8G	-tum
8F)	.
8F	est
8F	et
8A	nox
8G	ut
(16F	di-
16G)	.
8G	-es
=147-	=147-
(8G	il-
16A)	.
(8A	-lu-
16G)	.
8F	-mi-
(16G	-na-
16A)	.
(8G	-bi-
8F)	.
8F	-tur.
=148-	=148-
8F	et
8A	nox
8G	il-
8G	-lu-
8G	-mi-
8G	-na-
8G	-ti-
8F	-o
=149-	=149-
(16F	me-
16G)	.
8G	-a
8G	in
8F	de-
(8G	-li-
8A)	.
(16G	.
16A)	.
16G	.
16F	.
=150-	=150-
(8G	-ci-
8A)	.
(8G	-is
8A	.
8G)	.
8F	me-
4F	-is.
=151-	=151-
(8G	Hu-
8A)	.
8G	-ius
(8F	i-
8G)	.
8G	-gi-
8G	-tur
8G	sanc-
=152-	=152-
8G	-ti-
8G	-fi-
(8G	-ca-
8A)	.
(8A	-ti-
8G)	.
4F	-o
=153-	=153-
(4G	noc-
4A	.
4G)	.
4F	-tis
=154-	=154-
4A	fu-
(4G	-gat
8A)	.
(8G	.
4F)	.
=155-	=155-
(8G	sce-
8A)	.
(8G	-le-
8F)	.
4F	-ra.
(8G	cul-
16A	.
16G)	.
=156-	=156-
4F	-pas
(4G	la-
8A	.
8G)	.
4F	-vat.
=157-	=157-
4A	red-
4G	-dit
4G	in-
4G	-no-
=158-	=158-
(8G	-cen-
16A)	.
(8A	-ti-
16G)	.
8F	-am
(8G	lap-
16A	.
16G)	.
8F	-sis.
8A	me-
=159-	=159-
(8A	-stis
8G)	.
8F	le-
(8G	-ti-
8A)	.
(8G	-ti-
8F)	.
8F	-am.
=160-	=160-
4A	fu-
(8G	-gat
8A)	.
8G	.
8F	.
(8G	o-
8A)	.
=161-	=161-
(8G	-di-
8F)	.
4F	-a.
4F	con-
(8G	-cor-
8A)	.
=162-	=162-
(8A	-di-
8G)	.
8F	-am
(8G	pa-
8A	.
8G)	.
4F	-rat.
=163-	=163-
4F	et
(4G	cur-
4A)	.
(8G	.
8A)	.
=164-	=164-
8G	.
8F	.
(4G	-vat
4A)	.
(4G	im-
=165-	=165-
8A	.
8G)	.
4F	-pe-
4F	-ri-
4F	-a.
=166-	=166-
(8G	In
8A)	.
4G	hu-
4G	-ius
4G	i-
=167-	=167-
4G	-gi-
4G	-tur
4G	noc-
4F	-tis
=168-	=168-
(4F	gra-
4G)	.
4G	-ti-
4G	-a
=169-	=169-
8A	su-
8G	-sci-
8G	-pe
8G	sanc-
8G	-te
8G	pa-
8G	-ter
8G	in-
=170-	=170-
8G	-cen-
8F	-si
(16F	hu-
16G)	.
8G	-ius
8G	sa-
8G	-cri-
8G	-fi-
8G	-ci-
=171-	=171-
(16G	-um
16A)	.
(16A	ve-
16G)	.
4F	-sper-
(8G	-ti-
16A	.
16G)	.
4F	-num.
=172-	=172-
8F	quod
8A	ti-
8G	-bi
8F	in
16G	hac
16G	ce-
16G	-re-
16G	-i
8G	o-
8G	-bla-
=173-	=173-
8G	-ti-
8G	-o-
8G	-ne
8F	sol-
(16F	-lem-
16G)	.
8G	-ni
8G	per
8G	mi-
=174-	=174-
(16G	-ni-
&(16A&))	.
(16A	-stro-
16G)	.
8F	-rum
(8G	ma-
8A	.
8G)	.
4F	-nus
=175-	=175-
8F	o
8G	o-
8A	-pe-
8G	-ri-
8F	-bus
(16F	a-
16G)	.
8G	-pum
8G	sa-
=176-	=176-
8G	-cro-
8G	-sanc-
8F	-ta
(16G	red-
16A)	.
(16G	.
16A)	.
16G	.
16F	.
(8G	-dit
8A)	.
=177-	=177-
(8G	ec-
16A	.
16G)	.
4F	-cle-
4F	-si-
4F	-a.
=178-	=178-
(8G	Sed
8A)	.
8G	iam
8G	co-
8G	-lum-
8F	-ne
(8F	hu-
8G)	.
=179-	=179-
8G	-ius
8G	pre-
(8G	-co-
8A)	.
(8A	-ni-
8G)	.
4F	-a
=180-	=180-
(4G	no-
8A)	.
(4G	-vi-
8F)	.
4F	-mus.
=181-	=181-
8F	quam
8F	in
8G	ho-
8A	-no-
8G	-re
(8F	de-
8G)	.
8G	-i
=182-	=182-
8G	ru-
8G	-ti-
4F	-lans
(8G	i-
8A)	.
(8G	.
8A)	.
=183-	=183-
8G	.
8F	.
(8G	-gnis
8A)	.
(8G	ac-
16A	.
16G)	.
8F	-cen-
8F	-dit.
=184-	=184-
(8G	Qui
8A)	.
4G	li-
4G	-cet
4G	sit
=185-	=185-
4G	di-
(4G	-vi-
4A)	.
(8A	-sus
8G)	.
=186-	=186-
4F	in
(4G	par-
8A	.
8G)	.
4F	-tes.
=187-	=187-
8F	mu-
8G	-tu-
8A	-a-
8G	-ti
8G	ta-
8F	-men
(8F	lu-
8G)	.
=188-	=188-
8G	-mi-
8G	-nis
8G	de-
8F	-tri-
(8G	-men-
8A)	.
(8G	.
8A)	.
=189-	=189-
8G	.
8F	.
(8G	-ta
8A)	.
(8G	non
16A	.
16G)	.
8F	no-
8F	-vit.
=190-	=190-
(8G	A-
8A)	.
4G	-li-
4G	-tur
4G	li-
=191-	=191-
(4G	-quan-
4A)	.
(4A	-ti-
4G)	.
=192-	=192-
4F	-bus
(4G	ce-
8A	.
8G)	.
4F	-ris.
=193-	=193-
8F	quam
8F	in
8G	sub-
8A	-stan-
8G	-ti-
8G	-am
16G	pre-
16G	-ti-
16G	-o-
16G	-se
=194-	=194-
16G	hu-
8F	-ius
(16F	lam-
16G)	.
16G	-pa-
16G	-dis
8G	a-
16F	-pes
(16G	ma-
16A)	.
(16G	.
16A)	.
16G	.
16F	.
=195-	=195-
(8G	-ter
8A)	.
(8G	e-
8A	.
8G)	.
8F	-du-
4F	-xit.
=196-	=196-
(8G	A-
8A)	.
4G	-pis
(8F	ce-
8G)	.
4G	-te-
=197-	=197-
4G	-ris
8G	que
8G	sub-
(8G	-iec-
8A)	.
(8A	-ta
8G)	.
=198-	=198-
4F	sunt
(8G	ho-
8A)	.
(8G	-mi-
8F)	.
4F	-ni
=199-	=199-
4F	a-
4F	-ni-
4G	man
4F	-ti-
=200-	=200-
(8G	-bus
8A)	.
(8G	.
8A)	.
8G	.
8F	.
(8G	an-
8A)	.
=201-	=201-
(4G	-te-
8A	.
8G)	.
4F	-cel-
4F	-lit.
=202-	=202-
(8G	Cum
8A)	.
8G	sit
8G	e-
8F	-nim
(8F	mi-
8G)	.
8G	-ni-
=203-	=203-
8G	-ma
8G	cor-
4G	-po-
(8G	-ris
8A)	.
(8A	par-
8G)	.
=204-	=204-
4F	-vi-
(4G	-ta-
8A	.
8G)	.
4F	-te.
=205-	=205-
8F	in-
8A	-gen-
8G	-tes
(16F	a-
16G)	.
8G	-ni-
8G	-mos
8G	an-
8G	-gu-
=206-	=206-
4G	-sto
(8G	ver-
8A)	.
(8A	-sat
8G)	.
4F	in
=207-	=207-
(4G	pec-
8A)	.
(4G	-to-
8F)	.
4F	-re.
=208-	=208-
8A	vi-
8G	-ri-
(8G	-bus
8A)	.
(8A	im-
8G)	.
8F	-be-
(8G	-cil-
=209-	=209-
16A	.
16G)	.
8F	-lis.
8F	sed
(16G	for-
16A)	.
(16G	.
16A)	.
16G	.
16F	.
(8G	-tis
8A)	.
=210-	=210-
(8G	in-
8A	.
8G)	.
4F	-ge-
8F	-ni-
4F	-o.
=211-	=211-
(8G	Hec
8A)	.
4G	ex-
4F	-plo-
(8F	-ra-
8G)	.
=212-	=212-
4G	-ta
(4G	tem-
8A)	.
(4A	-po-
8G)	.
=213-	=213-
4F	-rum
(4G	vi-
8A	.
8G)	.
4F	-ces.
=214-	=214-
8F	cum
8F	ca-
8A	-ni-
8G	-ti-
8G	-em
8G	pru-
8F	-i-
(16F	-no-
16G)	.
=215-	=215-
4G	-sam
4G	hi-
(8G	-ber-
8A)	.
(8A	-na
8G)	.
=216-	=216-
4F	po-
(8G	-su-
8A)	.
(8G	-e-
8F)	.
4F	-rint.
=217-	=217-
8F	et
8F	gla-
8G	-ci-
8A	-a-
8G	-le
(16F	se-
16G)	.
8G	-ni-
8G	-um
=218-	=218-
8G	ver-
8G	-ni
8F	te-
(16F	-po-
16G)	.
8G	-ris
8G	mo-
8G	-de-
(16G	-ra-
16A)	.
=219-	=219-
(16A	-ta
16G)	.
8F	de-
(8G	-ter-
8A)	.
(8G	-se-
8F)	.
4F	-rint.
=220-	=220-
8A	sta-
8G	-tim
8G	pro-
8F	-de-
(16F	-un-
16G)	.
8G	-di
8G	ad
8G	la-
=221-	=221-
8G	-bo-
8F	-rem
(8G	cu-
8A)	.
(8G	.
8A)	.
8G	.
8F	.
=222-	=222-
(8G	-ra
8A)	.
(8G	suc-
8A	.
8G)	.
4F	-ce-
8F	-dit.
=223-	=223-
(16G	Di-
16A)	.
8G	-sper-
8G	-se-
8G	-que
8F	per
(8F	a-
8G)	.
8G	-gros.
=224-	=224-
8G	li-
8G	-bra-
8G	-tis
(8G	pau-
8A)	.
(4A	-lu-
8G)	.
=225-	=225-
4F	-lum
(4G	pen-
8A	.
8G)	.
4F	-nis.
=226-	=226-
4A	cru-
4G	-ri-
4G	-bus
4F	su-
=227-	=227-
(8G	-spen-
8A)	.
(8G	.
8A)	.
8G	.
8F	.
(8G	-sis
8A)	.
=228-	=228-
(4G	in-
8A	.
8G)	.
4F	-si-
4F	-dunt.
=229-	=229-
(8G	Par-
8A)	.
4G	-tim
(4F	o-
4G)	.
=230-	=230-
4G	-re
(8G	le-
8A)	.
(8A	-gen-
8G)	.
4F	-tes
=231-	=231-
(4G	flo-
8A)	.
(4G	scu
8F)	.
4F	-los.
=232-	=232-
8F	o-
8G	-ne-
8A	-ra-
8G	-te
8G	vic-
8F	-tu-
(8F	-a-
8G)	.
=233-	=233-
8G	-li-
8G	-bus
8G	su-
8F	-is
(8G	ad
8A)	.
(16G	.
16A)	.
16G	.
16F	.
=234-	=234-
(8G	ca-
8A)	.
(8G	-stra
16A	.
16G)	.
8F	re-
8F	-me-
4F	-ant.
=235-	=235-
(8G	I-
8A)	.
4G	-bi-
4G	-que
4G	a-
=236-	=236-
4G	-li-
4G	-e
4G	i-
4G	-ne-
=237-	=237-
4G	-sti-
4G	-ma-
4G	-bi-
4F	-li
=238-	=238-
(8F	ar-
8G)	.
8G	-te
8G	cel-
8G	-lu-
8G	-las
8F	te-
(8F	-na-
=239-	=239-
8G)	.
8G	-ci
(8G	glu-
8A)	.
(8A	-ti-
8G)	.
4F	-no
=240-	=240-
(4G	in-
8A)	.
(4G	stru
8F)	.
4F	-unt.
=241-	=241-
4A	a-
4G	-li-
4G	-e
4F	li-
=242-	=242-
(8F	-quan-
8G)	.
4G	-ti-
(8G	-a
8A)	.
(8A	mel-
8G)	.
=243-	=243-
4F	-la
(4G	sti-
8A	.
8G)	.
4F	-pant.
=244-	=244-
4A	a-
4G	-li-
4F	-e
(8F	ver-
8G)	.
=245-	=245-
4G	-tunt
(4G	flo-
8A)	.
(4A	-res
8G)	.
=246-	=246-
4F	in
(4G	ce-
8A	.
8G)	.
4F	-ram.
=247-	=247-
4A	a-
4G	-li-
4G	-e
4G	o-
=248-	=248-
(4G	-re
8A)	.
(4A	na-
8G)	.
4F	-tos
=249-	=249-
(4G	fin-
4A	.
4G)	.
4F	-gunt.
=250-	=250-
8A	a-
8G	-li-
8G	-e
4F	col-
(8F	-lec-
8G)	.
8G	-tum
=251-	=251-
8G	e
8G	fo-
8G	-li-
8F	-is
(8G	ne-
8A)	.
(16G	.
16A)	.
16G	.
16F	.
=252-	=252-
(8G	-ctar
8A)	.
(8G	in-
8A	.
8G)	.
8F	-clu-
4F	-dunt.
=253-	=253-
(4G	O
4A)	.
4G	ve-
4G	-re
=254-	=254-
4G	mi-
(4G	-ra-
8A)	.
(4A	-bi-
8G)	.
=255-	=255-
4F	-lis
(4G	a-
8A	.
8G)	.
4F	-pis
=256-	=256-
8A	cu-
8G	-ius
8F	nec
(16F	se-
16G)	.
4G	-xum
(8G	ma-
8A)	.
=257-	=257-
(8A	scu
8G)	.
8F	-li
(8G	vi-
8A)	.
(16G	-o-
16F)	.
8F	-lant.
8A	fe-
=258-	=258-
(8A	-tus
8G)	.
8F	non
(8G	quas-
8A	.
8G)	.
4F	-sat.
=259-	=259-
4F	nec
4A	fi-
4G	-li-
4F	-i
=260-	=260-
8G	de-
8F	stru
(8G	-unt
8A)	.
(8G	.
8A)	.
8G	.
8F	.
=261-	=261-
(8G	ca-
&(8A&))	.
(8G	-sti-
8A	.
8G)	.
8F	-ta-
4F	-tem.
=262-	=262-
(8G	Si-
8A)	.
4G	-cut
8G	sanc-
8G	-ta
8F	con-
(16F	-ce-
16G)	.
=263-	=263-
4G	-pit
(4G	vir-
8A)	.
(4A	-go
8G)	.
=264-	=264-
4F	(Ma-
(4G	-ri-
8A	.
8G)	.
4F	-a)
=265-	=265-
4A	vir-
(16G	-go
16A)	.
16G	.
16F	.
(8G	pe-
8A)	.
(8G	-pe-
8F)	.
=266-	=266-
8F	-rit
8F	et
(8G	vir-
8A)	.
(8G	.
8A)	.
8G	.
8F	.
=267-	=267-
(8G	-go
8A)	.
(8G	per-
8A	.
8G)	.
8F	man
4F	-sit.
=268-	=268-
(16G	O
16A)	.
16G	ve-
16G	-re
8G	be-
8G	-a-
8F	-ta
(16F	nox
16G)	.
8G	que
8G	ex-
=269-	=269-
8G	-po-
8G	-li-
(16G	-a-
16A)	.
(16A	-vit
16G)	.
8F	e-
(16G	-gyp-
16A)	.
(16G	-ti-
16F)	.
8F	-os.
=270-	=270-
8F	di-
(16G	-ta-
16A)	.
(16A	-vit
16G)	.
8F	he-
(8G	-bre-
8A	.
8G)	.
8F	-os.
=271-	=271-
8A	nox
8G	in
8G	qua
8F	ter-
(8F	-re-
8G)	.
8G	-nis
8G	ce-
=272-	=272-
8F	-le-
(8G	-sti-
8A)	.
(8G	.
8A)	.
8G	.
8F	.
(8G	-a
=273-	=273-
8A)	.
(8G	iun-
8A	.
8G)	.
4F	-gun-
4F	-tur.
=274-	=274-
(8G	O-
8A)	.
4G	-ra-
8G	-mus
8F	te
(8F	do-
8G)	.
=275-	=275-
4G	-mi-
8G	-ne
4G	ut
8A	ce-
8G	-re-
8F	-us
=276-	=276-
(8F	i-
8G)	.
4G	-ste
4G	in
4G	ho-
=277-	=277-
4A	-no-
4G	-rem
4G	no-
4G	-mi-
=278-	=278-
4G	-nis
4G	tu-
(8G	-i
8A)	.
(8A	con-
8G)	.
=279-	=279-
4F	-se-
(4G	-cra-
8A	.
8G)	.
4F	-tus.
=280-	=280-
8F	ad
8A	noc-
8G	-tis
(16F	hu-
16G)	.
8G	-ius
8G	ca-
8G	-li-
8G	-gi-
=281-	=281-
16G	-nem
16G	de-
8F	stru
(16F	-en-
16G)	.
8G	-dam
8G	in-
16G	-de-
16G	-fi-
8G	-ci-
(16G	-ens
16A)	.
=282-	=282-
(8A	per-
8G)	.
8F	-se-
(8G	-ve-
8A	.
8G)	.
4F	-ret.
=283-	=283-
8F	et
8F	in
8G	o-
8A	-do-
4G	-rem
4G	su-
=284-	=284-
4G	-a-
4G	-vi-
(8G	-ta-
8A)	.
(8A	-tis
8G)	.
=285-	=285-
4F	ac-
(4G	-cep-
8A	.
8G)	.
4F	-tus.
=286-	=286-
8F	su-
4A	-per-
8G	-nis
8G	lu-
8F	-mi-
8G	-na-
8F	-ri-
=287-	=287-
(8G	-bus
8A)	.
(8G	.
8A)	.
8G	.
8F	.
(8G	mi-
8A)	.
=288-	=288-
(4G	-sce-
8A	.
8G)	.
4F	-a-
4F	-tur.
=289-	=289-
(8G	Flam-
8A)	.
4G	-mas
(8F	e-
8G)	.
4G	-ius
=290-	=290-
8G	lu-
8G	-ci-
8G	-fer
8G	ma-
4G	-tu-
(8G	-ti-
8A)	.
=291-	=291-
(8A	-nus
8G)	.
8F	in-
(16G	-ve-
16A)	.
(8G	-ni-
8F)	.
4F	-at.
=292-	=292-
8A	il-
8G	-le
8G	in-
4F	-quam
(8F	lu-
8G)	.
8G	-ci-
=293-	=293-
8G	-fer
4G	qui
(8G	ne-
8A)	.
8r	.
(8A	-scit
8G)	.
=294-	=294-
4F	oc-
(4G	-ca-
8A	.
8G)	.
4F	-sum.
=295-	=295-
8A	il-
8G	-le
8G	qui
8G	re-
16G	-gres-
16G	-sus
8F	ab
(16F	in-
16G)	.
8G	-fe-
=296-	=296-
16G	-ris
16G	hu-
16G	-ma-
8F	-no
(16F	ge-
16G)	.
16G	-ne-
8G	-ri
16F	se-
(8G	-re-
8A)	.
(16G	.
=297-	=297-
8A)	.
8G	.
16F	.
(8G	-nus
16A)	.
(8G	il-
16A	.
16G)	.
8F	-lu-
8F	-xit.
=298-	=298-
(4G	Pre-
4A)	.
4G	-ca-
4G	-mur
=299-	=299-
4G	er-
4G	-go
4F	te
(4F	do-
=300-	=300-
4G)	.
4G	-mi-
4G	-ne
4G	ut
=301-	=301-
8A	nos
8G	fa-
8G	-mu-
8G	-os
8G	tu-
8G	-os
8G	om-
8F	-nem
=302-	=302-
(8F	cle-
8G)	.
8G	-rum
8G	et
8G	de-
8G	-vo-
(16G	-tis-
16A)	.
(16A	-si-
16G)	.
=303-	=303-
4F	-mum
(8G	po-
8A)	.
(8G	-pu-
8F)	.
4F	-lum.
=304-	=304-
8F	u-
8A	-na
8G	cum
4G	be-
8F	-a-
(8F	-tis-
8G)	.
=305-	=305-
8G	-si-
8G	-mo
8G	pa-
8G	-pa
(8G	no-
8A)	.
(8A	-stro.
8G)	.
=306-	=306-
4F	.
(4G	.
8A	.
8G)	.
4F	.
=307-	=307-
4F	et
4G	an-
4A	-ti-
4G	-sti-
=308-	=308-
4G	-te
(4G	no-
4A)	.
(8A	-stro.
8G)	.
=309-	=309-
4F	.
(4G	.
8A	.
8G)	.
4F	.
=310-	=310-
4F	pre-
4A	sen
4G	-tis
(8F	vi-
8G)	.
=311-	=311-
4G	-te
4G	qui-
(8G	-e-
8A)	.
(8A	-te
8G)	.
=312-	=312-
4F	con-
(4G	-ces-
8A	.
8G)	.
4F	-sa.
=313-	=313-
8A	gau-
8G	-di-
8F	-is
(8F	fa-
8G)	.
8G	-ci-
8G	-as
8G	per-
=314-	=314-
4F	-fru-
(8G	-i
8A)	.
(8G	.
8A)	.
8G	.
8F	.
=315-	=315-
(8G	sem-
8A)	.
(8G	-pi-
8A	.
8G)	.
8F	-ter-
4F	-nis.
=316-	=316-
(8G	Me-
8A)	.
8G	-men-
8G	-to
8G	e-
8G	-ti-
8F	-am
(16F	do-
16G)	.
=317-	=317-
8G	-mi-
8G	-ne
8G	fa-
8G	-mu-
8F	-li
(16F	tu-
16G)	.
16G	-i
8G	im-
16G	-pe-
=318-	=318-
16G	-ra-
8G	-to-
16G	-ris
(16G	no-
16A)	.
(16A	-stri.
16G)	.
8F	.
(8G	.
16A	.
16G)	.
8F	.
=319-	=319-
8A	nec
8G	non
8G	et
8G	fa-
8G	-mu-
8F	-li
(8F	tu-
8G)	.
=320-	=320-
8G	-i
4G	co-
8G	-mi-
4G	-tis
(8G	no-
8A)	.
=321-	=321-
(8A	-stri.
8G)	.
8F	.
(8G	.
8A	.
8G)	.
4F	.
=322-	=322-
4F	cum
4A	om-
4G	-ni
4G	e-
=323-	=323-
4G	-xer-
(4G	-ci-
8A)	.
(4A	-tu
8G)	.
=324-	=324-
4F	e-
(4G	-o-
8A	.
8G)	.
4F	-rum.
=325-	=325-
4F	et
4F	ce-
4A	-le-
4G	-stem
=326-	=326-
(8F	e-
8G)	.
8G	-is
8G	con-
(8G	-ce-
8A)	.
(8A	-de
8G)	.
=327-	=327-
4F	vic-
(8G	-to-
8A)	.
(8G	-ri-
8F)	.
4F	-am.
=328-	=328-
8F	et
8A	his
8G	qui
8G	ti-
4F	-bi
(8F	of-
8G)	.
=329-	=329-
8G	-fe-
8G	-runt
8G	hoc
4G	sa-
8G	-cri-
(8G	-fi-
8A)	.
=330-	=330-
(8A	-ci-
8G)	.
8F	-um
(8G	lau-
8A	.
8G)	.
4F	-dis
=331-	=331-
4A	pre-
4G	-mi-
4G	-a
4G	e-
=332-	=332-
4F	-ter-
(8G	-na
8A)	.
(8G	.
8A)	.
8G	.
8F	.
=333-	=333-
(8G	lar-
8A)	.
(4G	-gi-
8A	.
8G)	.
8F	-a-
8F	-ris.
=334-	=334-
1r	.
=335-	=335-
1r	.
=336-	=336-
1r	.
=337-	=337-
1r	.
=338-	=338-
1r	.
=339-	=339-
1r	.
=340-	=340-
1r	.
=341-	=341-
1r	.
=342-	=342-
1r	.
=343-	=343-
1r	.
=344-	=344-
1r	.
=345-	=345-
1r	.
=346-	=346-
1r	.
=347-	=347-
1r	.
=348-	=348-
1r	.
=349-	=349-
1r	.
=350-	=350-
1r	.
=351-	=351-
1r	.
=352-	=352-
1r	.
=353-	=353-
1r	.
=354-	=354-
1r	.
=355-	=355-
1r	.
=356-	=356-
1r	.
=357-	=357-
1r	.
=358-	=358-
1r	.
=359-	=359-
1r	.
=360-	=360-
1r	.
=361-	=361-
1r	.
=362-	=362-
1r	.
=363-	=363-
1r	.
=364-	=364-
1r	.
=365-	=365-
1r	.
=366-	=366-
1r	.
=367-	=367-
1r	.
=368-	=368-
1r	.
=369-	=369-
1r	.
=370-	=370-
1r	.
=371-	=371-
1r	.
=372-	=372-
1r	.
=373-	=373-
1r	.
=374-	=374-
1r	.
=375-	=375-
1r	.
=376-	=376-
1r	.
==	==
*-	*-
!!!hum2abc: -p "%%nostems" -M none
!!!ENC: Elsa De Luca
!!!RWG: Rhythms and barlines are for alignment only, not found in source.
!!!YEC: Copyright 2009, Elsa De Luca
!!!title: @{OTL}, @{SMS}
